dist/img/help/help-3.svg

<svg width="74" height="91" viewBox="0 0 74 91" fill="none" xmlns="http://www.w3.org/2000/svg">
<path d="M24.3819 31.9678H49.6656M48.1419 31.9678L46.8213 34.4774V35.7021C46.8213 38.3006 45.7891 40.7926 43.9517 42.63C42.1143 44.4674 39.6222 45.4997 37.0237 45.4997C34.4252 45.4997 31.9332 44.4674 30.0958 42.63C28.2584 40.7926 27.2261 38.3006 27.2261 35.7021V34.4774L25.9055 31.9678M49.6656 59.0316H24.3819" stroke="white" stroke-width="3" stroke-linecap="round" stroke-linejoin="round"/>
<path d="M25.9043 59.0317L27.2249 56.522V55.2973C27.2249 52.6989 28.2572 50.2068 30.0946 48.3694C31.932 46.532 34.424 45.4998 37.0225 45.4998C39.621 45.4998 42.113 46.532 43.9505 48.3694C45.7879 50.2068 46.8201 52.6989 46.8201 55.2973V56.522L48.1407 59.0317" stroke="white" stroke-width="3" stroke-linecap="round" stroke-linejoin="round"/>
<path d="M32 55L32.5939 54.0727V53.6202C32.5939 52.66 33.0581 51.7392 33.8844 51.0603C34.7107 50.3814 35.8314 50 37 50C38.1686 50 39.2893 50.3814 40.1156 51.0603C40.9419 51.7392 41.4061 52.66 41.4061 53.6202V54.0727L42 55" stroke="white" stroke-width="2" stroke-linecap="round" stroke-linejoin="round"/>
<path d="M38.9004 2.69776C46.2308 9.07557 54.3598 10.7553 60.9383 5.9034C61.407 5.58054 61.9625 5.4073 62.5315 5.4065C63.1006 5.40571 63.6566 5.5774 64.1261 5.89893L70.7292 10.1999C71.3756 10.6213 71.8283 11.2822 71.9876 12.0372C72.147 12.7923 72.0001 13.5797 71.5792 14.2264C68.6165 18.5227 66.8657 23.5377 66.5108 28.7444C66.5108 37.1946 71.655 44.0542 71.655 53.6064C71.655 68.508 63.6755 77.2081 55.8968 79.4478C40.9974 83.7331 43.2438 89 37.0244 89C30.8049 89 33.0513 83.7354 18.152 79.4478C10.371 77.2103 2.39371 68.508 2.39371 53.6064C2.39371 44.0542 7.53567 37.1946 7.53567 28.7444C7.18143 23.5379 5.43144 18.523 2.46956 14.2264C2.04956 13.5796 1.90339 12.7925 2.06316 12.038C2.22293 11.2835 2.67558 10.6232 3.32172 10.2021L9.92483 5.89893C10.3941 5.57788 10.9497 5.40647 11.5183 5.40727C12.0869 5.40807 12.642 5.58103 13.1104 5.9034C19.689 10.7553 27.8179 9.07334 35.1483 2.69776C35.6697 2.24765 36.3355 2 37.0244 2C37.7132 2 38.379 2.24765 38.9004 2.69776Z" stroke="white" stroke-width="3" stroke-linecap="round" stroke-linejoin="round"/>
<path d="M64.623 21.4158C64.9595 20.9177 65.0769 20.3113 64.9495 19.7298C64.8221 19.1484 64.4603 18.6394 63.9435 18.3148L58.6648 15.0026C58.2895 14.755 57.845 14.6228 57.3901 14.6234C56.9352 14.624 56.4911 14.7574 56.1165 15.0061C50.8574 18.7426 44.3589 17.449 38.4988 12.5374C38.082 12.1907 37.5497 12 36.999 12M52.0861 71.6437C40.1752 74.9439 41.971 79 36.999 79C32.0271 79 33.8229 74.9456 21.912 71.6437C15.6917 69.9206 9.31445 63.2188 9.31445 51.7429C9.31445 44.3866 13.4251 39.1039 13.4251 32.5962" stroke="white" stroke-width="2.5" stroke-linecap="round" stroke-linejoin="round"/>
</svg>

<svg width="74" height="91" fill="none" xmlns="http://www.w3.org/2000/svg"><path d="M24.382 31.968h25.284m-1.524 0-1.32 2.51v1.224a9.797 9.797 0 1 1-19.596 0v-1.225l-1.32-2.51m23.76 27.065H24.382" stroke="#fff" stroke-width="3" stroke-linecap="round" stroke-linejoin="round"/><path d="m25.904 59.032 1.32-2.51v-1.225a9.798 9.798 0 0 1 19.596 0v1.225l1.32 2.51" stroke="#fff" stroke-width="3" stroke-linecap="round" stroke-linejoin="round"/><path d="m32 55 .594-.927v-.453c0-.96.464-1.88 1.29-2.56C34.711 50.381 35.831 50 37 50s2.29.381 3.116 1.06c.826.68 1.29 1.6 1.29 2.56v.453L42 55" stroke="#fff" stroke-width="2" stroke-linecap="round" stroke-linejoin="round"/><path d="M38.9 2.698c7.33 6.378 15.46 8.057 22.038 3.205a2.816 2.816 0 0 1 3.188-.004l6.603 4.3a2.91 2.91 0 0 1 .85 4.027 29.054 29.054 0 0 0-5.068 14.518c0 8.45 5.144 15.31 5.144 24.862 0 14.902-7.98 23.602-15.758 25.842C40.997 83.733 43.244 89 37.024 89c-6.22 0-3.973-5.265-18.872-9.552-7.781-2.238-15.758-10.94-15.758-25.842 0-9.552 5.142-16.411 5.142-24.862A29.054 29.054 0 0 0 2.47 14.226a2.911 2.911 0 0 1 .852-4.024L9.925 5.9a2.815 2.815 0 0 1 3.185.004c6.579 4.852 14.708 3.17 22.038-3.205a2.87 2.87 0 0 1 3.752 0Z" stroke="#fff" stroke-width="3" stroke-linecap="round" stroke-linejoin="round"/><path d="M64.623 21.416a2.174 2.174 0 0 0 .326-1.686 2.243 2.243 0 0 0-1.005-1.415l-5.28-3.312a2.311 2.311 0 0 0-1.274-.38 2.31 2.31 0 0 0-1.273.383c-5.26 3.737-11.758 2.443-17.618-2.469a2.347 2.347 0 0 0-1.5-.537m15.087 59.644C40.176 74.944 41.971 79 37 79c-4.972 0-3.176-4.054-15.087-7.356-6.22-1.723-12.598-8.425-12.598-19.901 0-7.356 4.111-12.64 4.111-19.147" stroke="#fff" stroke-width="2.5" stroke-linecap="round" stroke-linejoin="round"/></svg>
